humanity-icon-theme/Humanity/categories/48/applications-mail.svg

<?xml version="1.0" encoding="UTF-8" standalone="no"?>
<!-- Created with Inkscape (http://www.inkscape.org/) -->

<svg
   xmlns:dc="http://purl.org/dc/elements/1.1/"
   xmlns:cc="http://creativecommons.org/ns#"
   xmlns:rdf="http://www.w3.org/1999/02/22-rdf-syntax-ns#"
   xmlns:svg="http://www.w3.org/2000/svg"
   xmlns="http://www.w3.org/2000/svg"
   xmlns:xlink="http://www.w3.org/1999/xlink"
   version="1.1"
   width="48"
   height="48"
   id="svg4555">
  <metadata
     id="metadata82">
    <rdf:RDF>
      <cc:Work
         rdf:about="">
        <dc:format>image/svg+xml</dc:format>
        <dc:type
           rdf:resource="http://purl.org/dc/dcmitype/StillImage" />
        <dc:title></dc:title>
      </cc:Work>
    </rdf:RDF>
  </metadata>
  <defs
     id="defs4557">
    <linearGradient
       id="linearGradient8265-821-176-38-919-66-249-7-7">
      <stop
         id="stop2687-1-9"
         style="stop-color:#ffffff;stop-opacity:1"
         offset="0" />
      <stop
         id="stop2689-5-4"
         style="stop-color:#ffffff;stop-opacity:0"
         offset="1" />
    </linearGradient>
    <linearGradient
       id="linearGradient3333-4-4">
      <stop
         id="stop3335-4-6"
         style="stop-color:#ffffff;stop-opacity:1"
         offset="0" />
      <stop
         id="stop3337-7-2"
         style="stop-color:#ffffff;stop-opacity:0"
         offset="1" />
    </linearGradient>
    <linearGradient
       id="linearGradient3495">
      <stop
         id="stop3497"
         style="stop-color:#000000;stop-opacity:1"
         offset="0" />
      <stop
         id="stop3874"
         style="stop-color:#000000;stop-opacity:0.49803922"
         offset="0.5" />
      <stop
         id="stop3499"
         style="stop-color:#000000;stop-opacity:0"
         offset="1" />
    </linearGradient>
    <linearGradient
       id="linearGradient3333-4">
      <stop
         id="stop3335-4"
         style="stop-color:#ffffff;stop-opacity:1"
         offset="0" />
      <stop
         id="stop3337-7"
         style="stop-color:#ffffff;stop-opacity:0"
         offset="1" />
    </linearGradient>
    <linearGradient
       id="linearGradient3866">
      <stop
         id="stop3868"
         style="stop-color:#828282;stop-opacity:1"
         offset="0" />
      <stop
         id="stop3872"
         style="stop-color:#8f8f8f;stop-opacity:0.63478261"
         offset="0.5" />
      <stop
         id="stop3870"
         style="stop-color:#9d9d9d;stop-opacity:0"
         offset="1" />
    </linearGradient>
    <linearGradient
       id="linearGradient3242-967-12-570-862-307">
      <stop
         id="stop4498"
         style="stop-color:#ffffff;stop-opacity:1"
         offset="0" />
      <stop
         id="stop4502"
         style="stop-color:#d7d7d7;stop-opacity:1"
         offset="0.87426931" />
      <stop
         id="stop4504"
         style="stop-color:#999999;stop-opacity:1"
         offset="1" />
    </linearGradient>
    <linearGradient
       id="linearGradient2490-495-150-777">
      <stop
         id="stop4108"
         style="stop-color:#787878;stop-opacity:1"
         offset="0" />
      <stop
         id="stop4110"
         style="stop-color:#b4b4b4;stop-opacity:1"
         offset="1" />
    </linearGradient>
    <linearGradient
       x1="302.85715"
       y1="366.64789"
       x2="302.85715"
       y2="609.50507"
       id="linearGradient3021"
       xlink:href="#linearGradient5048-7-0"
       gradientUnits="userSpaceOnUse"
       gradientTransform="matrix(0.06553443,0,0,0.02470588,-69.188394,10.577352)" />
    <linearGradient
       id="linearGradient5048-7-0">
      <stop
         id="stop5050-5-3"
         style="stop-color:#000000;stop-opacity:0"
         offset="0" />
      <stop
         id="stop5056-9-0"
         style="stop-color:#000000;stop-opacity:1"
         offset="0.5" />
      <stop
         id="stop5052-6-4"
         style="stop-color:#000000;stop-opacity:0"
         offset="1" />
    </linearGradient>
    <radialGradient
       cx="605.71429"
       cy="486.64789"
       r="117.14286"
       fx="605.71429"
       fy="486.64789"
       id="radialGradient3023"
       xlink:href="#linearGradient5060-6-8"
       gradientUnits="userSpaceOnUse"
       gradientTransform="matrix(0.06553443,0,0,0.02470588,-69.175497,10.577352)" />
    <linearGradient
       id="linearGradient5060-6-8">
      <stop
         id="stop5062-3-4"
         style="stop-color:#000000;stop-opacity:1"
         offset="0" />
      <stop
         id="stop5064-1-8"
         style="stop-color:#000000;stop-opacity:0"
         offset="1" />
    </linearGradient>
    <radialGradient
       cx="605.71429"
       cy="486.64789"
       r="117.14286"
       fx="605.71429"
       fy="486.64789"
       id="radialGradient4553"
       xlink:href="#linearGradient5060-6-8"
       gradientUnits="userSpaceOnUse"
       gradientTransform="matrix(-0.06553443,0,0,0.02470588,-21.829255,10.577352)" />
    <linearGradient
       x1="16.626165"
       y1="15.298182"
       x2="20.054544"
       y2="24.627615"
       id="linearGradient2891"
       xlink:href="#linearGradient8265-821-176-38-919-66-249-7-7"
       gradientUnits="userSpaceOnUse"
       gradientTransform="matrix(0.9986003,0,0,1.0843613,-0.0131199,3.8058986)" />
    <linearGradient
       x1="25.525208"
       y1="30.188753"
       x2="25.525208"
       y2="15.737678"
       id="linearGradient2894"
       xlink:href="#linearGradient3333-4-4"
       gradientUnits="userSpaceOnUse"
       gradientTransform="translate(-8.8168783e-8,-4.0466448)"
       spreadMethod="reflect" />
    <linearGradient
       x1="23.903786"
       y1="35.75"
       x2="23.903786"
       y2="20.443331"
       id="linearGradient2897"
       xlink:href="#linearGradient3495"
       gradientUnits="userSpaceOnUse"
       gradientTransform="matrix(0.9980111,0,0,1.0672078,0.14375595,-3.0333278)" />
    <linearGradient
       x1="25.525208"
       y1="30.188753"
       x2="25.525208"
       y2="15.737678"
       id="linearGradient2900"
       xlink:href="#linearGradient3333-4"
       gradientUnits="userSpaceOnUse"
       gradientTransform="translate(-8.8168783e-8,-1.3324578)"
       spreadMethod="reflect" />
    <linearGradient
       x1="25.525208"
       y1="30.188753"
       x2="25.525208"
       y2="15.737678"
       id="linearGradient2903"
       xlink:href="#linearGradient3866"
       gradientUnits="userSpaceOnUse"
       gradientTransform="translate(-8.8168783e-8,-2.6324578)"
       spreadMethod="reflect" />
    <linearGradient
       x1="25.57654"
       y1="15.000002"
       x2="25.57654"
       y2="44.00053"
       id="linearGradient2911"
       xlink:href="#linearGradient3333-4"
       gradientUnits="userSpaceOnUse"
       gradientTransform="matrix(0.9999999,0,0,1.1071427,9.1183122e-7,-5.6607238)" />
    <linearGradient
       x1="20.052792"
       y1="8.163353"
       x2="20.052792"
       y2="48.072277"
       id="linearGradient2919"
       xlink:href="#linearGradient3242-967-12-570-862-307"
       gradientUnits="userSpaceOnUse"
       gradientTransform="translate(0,-0.99999982)" />
    <linearGradient
       x1="28.103424"
       y1="45.000065"
       x2="28.103424"
       y2="14.038458"
       id="linearGradient2921"
       xlink:href="#linearGradient2490-495-150-777"
       gradientUnits="userSpaceOnUse"
       gradientTransform="matrix(0.9999999,0,0,1.1014118,-8.8168783e-8,-5.5128098)" />
    <linearGradient
       x1="20.052792"
       y1="8.163353"
       x2="20.052792"
       y2="48.072277"
       id="linearGradient2906-8"
       xlink:href="#linearGradient3242-6-9-7"
       gradientUnits="userSpaceOnUse"
       gradientTransform="translate(1.2624171e-6,-1.0000028)" />
    <linearGradient
       id="linearGradient3242-6-9-7">
      <stop
         id="stop3244-6-4-2"
         style="stop-color:#f89b7e;stop-opacity:1"
         offset="0" />
      <stop
         id="stop3246-6-8-8"
         style="stop-color:#e35d4f;stop-opacity:1"
         offset="0.11961333" />
      <stop
         id="stop3248-0-9-2"
         style="stop-color:#c6262e;stop-opacity:1"
         offset="0.81107038" />
      <stop
         id="stop3250-9-0-9"
         style="stop-color:#690b2c;stop-opacity:1"
         offset="1" />
    </linearGradient>
    <linearGradient
       x1="28.103424"
       y1="45.000065"
       x2="28.103424"
       y2="14.038458"
       id="linearGradient2908-9"
       xlink:href="#linearGradient2490-5-8-6"
       gradientUnits="userSpaceOnUse"
       gradientTransform="matrix(0.9999999,0,0,1.1014118,2.6241716e-7,-5.5128128)" />
    <linearGradient
       id="linearGradient2490-5-8-6">
      <stop
         id="stop2492-8-2-0"
         style="stop-color:#791235;stop-opacity:1"
         offset="0" />
      <stop
         id="stop2494-7-2-2"
         style="stop-color:#dd3b27;stop-opacity:1"
         offset="1" />
    </linearGradient>
    <radialGradient
       cx="23.895569"
       cy="17.529579"
       r="20.397499"
       fx="23.895569"
       fy="17.529579"
       id="radialGradient2914-3"
       xlink:href="#linearGradient3242-187-536-5-1"
       gradientUnits="userSpaceOnUse"
       gradientTransform="matrix(0,1.9355077,-3.0194057,0,76.92218,-36.993597)" />
    <linearGradient
       id="linearGradient3242-187-536-5-1">
      <stop
         id="stop2778-7-4"
         style="stop-color:#8badea;stop-opacity:1"
         offset="0" />
      <stop
         id="stop2780-6-6"
         style="stop-color:#6396cd;stop-opacity:1"
         offset="0.26238" />
      <stop
         id="stop2782-9-9"
         style="stop-color:#3b7caf;stop-opacity:1"
         offset="0.66093999" />
      <stop
         id="stop2784-5-4"
         style="stop-color:#194c70;stop-opacity:1"
         offset="1" />
    </linearGradient>
    <linearGradient
       x1="18.379412"
       y1="44.980297"
       x2="18.379412"
       y2="3.0816143"
       id="linearGradient2916-2"
       xlink:href="#linearGradient2490-182-124-1-2"
       gradientUnits="userSpaceOnUse"
       gradientTransform="matrix(0.9584364,0,0,0.81097023,41.872268,7.5367172)" />
    <linearGradient
       id="linearGradient2490-182-124-1-2">
      <stop
         id="stop2788-5-6"
         style="stop-color:#1f4b6a;stop-opacity:1"
         offset="0" />
      <stop
         id="stop2790-5-4"
         style="stop-color:#4083c2;stop-opacity:1"
         offset="1" />
    </linearGradient>
  </defs>
  <g
     transform="matrix(1.0008068,0,0,1.0008068,69.539093,20.343603)"
     id="g3511-3"
     style="stroke-width:1.03041875;stroke-miterlimit:4;stroke-dasharray:none">
    <rect
       width="31.643764"
       height="6.0000005"
       x="-61.324265"
       y="19.635714"
       id="rect2512-1"
       style="opacity:0.40206185;fill:url(#linearGradient3021);fill-opacity:1;fill-rule:nonzero;stroke:none;stroke-width:1.03041875;marker:none;visibility:visible;display:inline;overflow:visible" />
    <path
       d="m -29.680498,19.635919 c 0,0 0,5.999669 0,5.999669 3.374861,0.01129 8.158771,-1.344221 8.158769,-3.000221 0,-1.655999 -3.76609,-2.999448 -8.158769,-2.999448 z"
       id="path2514-7"
       style="opacity:0.40206185;fill:url(#radialGradient3023);fill-opacity:1;fill-rule:nonzero;stroke:none;stroke-width:1.03041875;marker:none;visibility:visible;display:inline;overflow:visible" />
    <path
       d="m -61.324263,19.635919 c 0,0 0,5.999669 0,5.999669 -3.374861,0.01129 -8.158771,-1.344221 -8.158771,-3.000221 0,-1.655999 3.766091,-2.999448 8.158771,-2.999448 z"
       id="path2516-5"
       style="opacity:0.40206185;fill:url(#radialGradient4553);fill-opacity:1;fill-rule:nonzero;stroke:none;stroke-width:1.03041875;marker:none;visibility:visible;display:inline;overflow:visible" />
  </g>
  <rect
     width="45"
     height="33"
     rx="0.99999994"
     ry="1"
     x="1.4999998"
     y="10.500003"
     id="rect2396-9"
     style="fill:url(#linearGradient2919);fill-opacity:1;fill-rule:evenodd;stroke:url(#linearGradient2921);stroke-width:1;stroke-linecap:square;stroke-linejoin:round;stroke-miterlimit:4;stroke-opacity:1;stroke-dasharray:none;stroke-dashoffset:0;marker:none;visibility:visible;display:inline;overflow:visible;enable-background:accumulate" />
  <path
     d="m 31,41.5 -2,2 5.6875,0 2,-2 -5.6875,0 z m -24,0 -2,2 5.6875,0 2,-2 L 7,41.5 z M 46.5,26 l -2,2 0,5.6875 2,-2 0,-5.6875 z m -43,-4.96875 -2,2 0,5.65625 2,-2 0,-5.65625 z M 38.03125,10.5 l -2,2 5.625,0 2,-2 -5.625,0 z m -24,0 -2,2 5.625,0 2,-2 -5.625,0 z"
     id="rect3049-1-33"
     style="color:#000000;fill:url(#radialGradient2914-3);fill-opacity:1;fill-rule:nonzero;stroke:url(#linearGradient2916-2);stroke-width:1.003654;stroke-linecap:round;stroke-linejoin:round;stroke-miterlimit:4;stroke-opacity:1;stroke-dasharray:none;stroke-dashoffset:0;marker:none;visibility:visible;display:inline;overflow:visible;enable-background:accumulate" />
  <path
     d="m 19,41.5 -2,2 5.6875,0 2,-2 -5.6875,0 z m 27.5,-3.5 -2,2 0,0.5 c 0,0.554 -0.446,1 -1,1 l -0.5,0 -2,2 4.5,0 c 0.554,0 1,-0.446 1,-1 l 0,-4.5 z m -43,-5 -2,2 0,5.6875 2,-2 L 3.5,33 z m 43,-18.96875 -2,2 0,5.625 2,-2 0,-5.625 z M 26.03125,10.5 l -2,2 5.625,0 2,-2 -5.625,0 z M 2.5,10.5 c -0.554,0 -1,0.446 -1,1 l 0,5.15625 2,-2 0,-1.15625 c 0,-0.554 0.446,-1 1,-1 l 1.15625,0 2,-2 -5.15625,0 z"
     id="path3212"
     style="color:#000000;fill:url(#linearGradient2906-8);fill-opacity:1;fill-rule:evenodd;stroke:url(#linearGradient2908-9);stroke-width:1;stroke-linecap:square;stroke-linejoin:round;stroke-miterlimit:4;stroke-opacity:1;stroke-dasharray:none;stroke-dashoffset:0;marker:none;visibility:visible;display:inline;overflow:visible;enable-background:accumulate" />
  <rect
     width="43.000004"
     height="30.999998"
     rx="0.082551509"
     ry="0.083472483"
     x="2.5"
     y="11.5"
     id="rect3331-6"
     style="opacity:0.4;fill:none;stroke:url(#linearGradient2911);stroke-width:1;stroke-linecap:square;stroke-linejoin:miter;stroke-miterlimit:4;stroke-opacity:1;stroke-dasharray:none;stroke-dashoffset:0;marker:none;visibility:visible;display:inline;overflow:visible;enable-background:accumulate" />
  <path
     d="M 3.2367049,13.730544 24,32.367542 45.077093,13.60522 M 18.65625,27.867542 5.1806899,41.5 18.65625,27.867542 z M 29.375,27.930042 42.944313,41.249352 29.375,27.930042 z"
     id="path3341-2"
     style="fill:none;stroke:url(#linearGradient2903);stroke-width:1;stroke-linecap:butt;stroke-linejoin:miter;stroke-miterlimit:4;stroke-opacity:1;stroke-dasharray:none;stroke-dashoffset:0;marker:none;visibility:visible;display:inline;overflow:visible;enable-background:accumulate" />
  <path
     d="M 3.2367049,15.030544 24,33.667542 45.077093,14.90522 M 18.65625,29.167542 5.1806899,42.8 18.65625,29.167542 z M 29.375,29.230042 42.944313,42.549352 29.375,29.230042 z"
     id="path3341-2-6"
     style="opacity:0.7;fill:none;stroke:url(#linearGradient2900);stroke-width:1;stroke-linecap:butt;stroke-linejoin:miter;stroke-miterlimit:4;stroke-opacity:1;stroke-dasharray:none;stroke-dashoffset:0;marker:none;visibility:visible;display:inline;overflow:visible;enable-background:accumulate" />
  <path
     d="m 8.4623078,19.817648 15.6337142,14 15.44167,-14"
     id="path3493"
     style="opacity:0.2;fill:none;stroke:url(#linearGradient2897);stroke-width:1;stroke-linecap:butt;stroke-linejoin:miter;stroke-miterlimit:4;stroke-opacity:1;stroke-dasharray:none" />
  <path
     d="M 3.2367049,12.316357 24,30.953355 45.077093,12.191033"
     id="path3926"
     style="opacity:0.7;fill:none;stroke:url(#linearGradient2894);stroke-width:1;stroke-linecap:butt;stroke-linejoin:miter;stroke-miterlimit:4;stroke-opacity:1;stroke-dasharray:none;stroke-dashoffset:0;marker:none;visibility:visible;display:inline;overflow:visible;enable-background:accumulate" />
  <path
     d="m 2.4744071,10 c -0.8221289,0 -1.473022,0.760388 -1.473022,1.5 l 0.0153,18.5 C 2.3399132,29.97986 45.99425,22.627577 46.998615,22.273924 l 0,-10.773924 c 0,-0.565337 -0.642963,-1.5 -1.354833,-1.5 L 2.4744062,10 z"
     id="path3333"
     style="opacity:0.2;fill:url(#linearGradient2891);fill-opacity:1;fill-rule:evenodd;stroke:none" />
</svg>

<?xml version="1.0" encoding="UTF-8" standalone="no"?>
<!-- Created with Inkscape (http://www.inkscape.org/) -->
<svg id="svg4555" xmlns:rdf="http://www.w3.org/1999/02/22-rdf-syntax-ns#" xmlns="http://www.w3.org/2000/svg" height="48" width="48" version="1.1" xmlns:cc="http://creativecommons.org/ns#" xmlns:xlink="http://www.w3.org/1999/xlink" xmlns:dc="http://purl.org/dc/elements/1.1/">
 <metadata id="metadata82">
  <rdf:RDF>
   <cc:Work rdf:about="">
    <dc:format>image/svg+xml</dc:format>
    <dc:type rdf:resource="http://purl.org/dc/dcmitype/StillImage"/>
    <dc:title/>
   </cc:Work>
  </rdf:RDF>
 </metadata>
 <defs id="defs4557">
  <linearGradient id="linearGradient3333-4">
   <stop id="stop3335-4" style="stop-color:#fff" offset="0"/>
   <stop id="stop3337-7" style="stop-color:#fff;stop-opacity:0" offset="1"/>
  </linearGradient>
  <linearGradient id="linearGradient3021" y2="609.51" gradientUnits="userSpaceOnUse" x2="302.86" gradientTransform="matrix(.065534 0 0 .024706 -69.188 10.577)" y1="366.65" x1="302.86">
   <stop id="stop5050-5-3" style="stop-opacity:0" offset="0"/>
   <stop id="stop5056-9-0" offset=".5"/>
   <stop id="stop5052-6-4" style="stop-opacity:0" offset="1"/>
  </linearGradient>
  <radialGradient id="radialGradient3023" xlink:href="#linearGradient5060-6-8" gradientUnits="userSpaceOnUse" cy="486.65" cx="605.71" gradientTransform="matrix(.065534 0 0 .024706 -69.175 10.577)" r="117.14"/>
  <linearGradient id="linearGradient5060-6-8">
   <stop id="stop5062-3-4" offset="0"/>
   <stop id="stop5064-1-8" style="stop-opacity:0" offset="1"/>
  </linearGradient>
  <radialGradient id="radialGradient4553" xlink:href="#linearGradient5060-6-8" gradientUnits="userSpaceOnUse" cy="486.65" cx="605.71" gradientTransform="matrix(-.065534 0 0 .024706 -21.829 10.577)" r="117.14"/>
  <linearGradient id="linearGradient2891" y2="24.628" gradientUnits="userSpaceOnUse" x2="20.055" gradientTransform="matrix(.99860 0 0 1.0844 -.013120 3.8059)" y1="15.298" x1="16.626">
   <stop id="stop2687-1-9" style="stop-color:#fff" offset="0"/>
   <stop id="stop2689-5-4" style="stop-color:#fff;stop-opacity:0" offset="1"/>
  </linearGradient>
  <linearGradient id="linearGradient2894" y2="15.738" spreadMethod="reflect" gradientUnits="userSpaceOnUse" x2="25.525" gradientTransform="translate(-8.8169e-8 -4.0466)" y1="30.189" x1="25.525">
   <stop id="stop3335-4-6" style="stop-color:#fff" offset="0"/>
   <stop id="stop3337-7-2" style="stop-color:#fff;stop-opacity:0" offset="1"/>
  </linearGradient>
  <linearGradient id="linearGradient2897" y2="20.443" gradientUnits="userSpaceOnUse" x2="23.904" gradientTransform="matrix(.99801 0 0 1.0672 .14376 -3.0333)" y1="35.75" x1="23.904">
   <stop id="stop3497" offset="0"/>
   <stop id="stop3874" style="stop-opacity:.49804" offset=".5"/>
   <stop id="stop3499" style="stop-opacity:0" offset="1"/>
  </linearGradient>
  <linearGradient id="linearGradient2900" y2="15.738" xlink:href="#linearGradient3333-4" spreadMethod="reflect" gradientUnits="userSpaceOnUse" x2="25.525" gradientTransform="translate(-8.8169e-8 -1.3325)" y1="30.189" x1="25.525"/>
  <linearGradient id="linearGradient2903" y2="15.738" spreadMethod="reflect" gradientUnits="userSpaceOnUse" x2="25.525" gradientTransform="translate(-8.8169e-8 -2.6325)" y1="30.189" x1="25.525">
   <stop id="stop3868" style="stop-color:#828282" offset="0"/>
   <stop id="stop3872" style="stop-color:#8f8f8f;stop-opacity:.63478" offset=".5"/>
   <stop id="stop3870" style="stop-color:#9d9d9d;stop-opacity:0" offset="1"/>
  </linearGradient>
  <linearGradient id="linearGradient2911" y2="44.001" xlink:href="#linearGradient3333-4" gradientUnits="userSpaceOnUse" x2="25.577" gradientTransform="matrix(1 0 0 1.1071 9.1183e-7 -5.6607)" y1="15" x1="25.577"/>
  <linearGradient id="linearGradient2919" y2="48.072" gradientUnits="userSpaceOnUse" x2="20.053" gradientTransform="translate(0 -1)" y1="8.1634" x1="20.053">
   <stop id="stop4498" style="stop-color:#fff" offset="0"/>
   <stop id="stop4502" style="stop-color:#d7d7d7" offset=".87427"/>
   <stop id="stop4504" style="stop-color:#999" offset="1"/>
  </linearGradient>
  <linearGradient id="linearGradient2921" y2="14.038" gradientUnits="userSpaceOnUse" x2="28.103" gradientTransform="matrix(1 0 0 1.1014 -8.8169e-8 -5.5128)" y1="45" x1="28.103">
   <stop id="stop4108" style="stop-color:#787878" offset="0"/>
   <stop id="stop4110" style="stop-color:#b4b4b4" offset="1"/>
  </linearGradient>
  <linearGradient id="linearGradient2906-8" y2="48.072" gradientUnits="userSpaceOnUse" x2="20.053" gradientTransform="translate(.0000012624 -1)" y1="8.1634" x1="20.053">
   <stop id="stop3244-6-4-2" style="stop-color:#f89b7e" offset="0"/>
   <stop id="stop3246-6-8-8" style="stop-color:#e35d4f" offset=".11961"/>
   <stop id="stop3248-0-9-2" style="stop-color:#c6262e" offset=".81107"/>
   <stop id="stop3250-9-0-9" style="stop-color:#690b2c" offset="1"/>
  </linearGradient>
  <linearGradient id="linearGradient2908-9" y2="14.038" gradientUnits="userSpaceOnUse" x2="28.103" gradientTransform="matrix(1 0 0 1.1014 2.6242e-7 -5.5128)" y1="45" x1="28.103">
   <stop id="stop2492-8-2-0" style="stop-color:#791235" offset="0"/>
   <stop id="stop2494-7-2-2" style="stop-color:#dd3b27" offset="1"/>
  </linearGradient>
  <radialGradient id="radialGradient2914-3" gradientUnits="userSpaceOnUse" cy="17.53" cx="23.896" gradientTransform="matrix(0 1.9355 -3.0194 0 76.922 -36.994)" r="20.397">
   <stop id="stop2778-7-4" style="stop-color:#8badea" offset="0"/>
   <stop id="stop2780-6-6" style="stop-color:#6396cd" offset=".26238"/>
   <stop id="stop2782-9-9" style="stop-color:#3b7caf" offset=".66094"/>
   <stop id="stop2784-5-4" style="stop-color:#194c70" offset="1"/>
  </radialGradient>
  <linearGradient id="linearGradient2916-2" y2="3.0816" gradientUnits="userSpaceOnUse" x2="18.379" gradientTransform="matrix(.95844 0 0 .81097 41.872 7.5367)" y1="44.98" x1="18.379">
   <stop id="stop2788-5-6" style="stop-color:#1f4b6a" offset="0"/>
   <stop id="stop2790-5-4" style="stop-color:#4083c2" offset="1"/>
  </linearGradient>
 </defs>
 <g id="g3511-3" style="stroke-width:1.0304" transform="matrix(1.0008 0 0 1.0008 69.539 20.344)">
  <rect id="rect2512-1" style="opacity:.40206;fill:url(#linearGradient3021)" height="6" width="31.644" y="19.636" x="-61.324"/>
  <path id="path2514-7" style="opacity:.40206;fill:url(#radialGradient3023)" d="m-29.68 19.636v5.9997c3.3749 0.01129 8.1588-1.3442 8.1588-3.0002s-3.7661-2.9994-8.1588-2.9994z"/>
  <path id="path2516-5" style="opacity:.40206;fill:url(#radialGradient4553)" d="m-61.324 19.636v5.9997c-3.3749 0.01129-8.1588-1.3442-8.1588-3.0002s3.7661-2.9994 8.1588-2.9994z"/>
 </g>
 <rect id="rect2396-9" style="stroke-linejoin:round;fill-rule:evenodd;stroke:url(#linearGradient2921);stroke-linecap:square;fill:url(#linearGradient2919)" rx="1" ry="1" height="33" width="45" y="10.5" x="1.5"/>
 <path id="rect3049-1-33" style="stroke-linejoin:round;stroke-width:1.0037;color:#000000;stroke:url(#linearGradient2916-2);stroke-linecap:round;fill:url(#radialGradient2914-3)" d="m31 41.5-2 2h5.6875l2-2h-5.6875zm-24 0-2 2h5.6875l2-2h-5.688zm39.5-15.5l-2 2v5.6875l2-2v-5.6875zm-43-4.9688-2 2v5.6562l2-2v-5.6562zm34.531-10.531l-2 2h5.625l2-2h-5.625zm-24 0-2 2h5.625l2-2h-5.625z"/>
 <path id="path3212" style="stroke-linejoin:round;color:#000000;fill-rule:evenodd;stroke:url(#linearGradient2908-9);stroke-linecap:square;fill:url(#linearGradient2906-8)" d="m19 41.5-2 2h5.6875l2-2h-5.6875zm27.5-3.5-2 2v0.5c0 0.554-0.446 1-1 1h-0.5l-2 2h4.5c0.554 0 1-0.446 1-1v-4.5zm-43-5-2 2v5.6875l2-2v-5.688zm43-18.969-2 2v5.625l2-2v-5.625zm-20.469-3.531l-2 2h5.625l2-2h-5.625zm-23.531 0c-0.554 0-1 0.446-1 1v5.1562l2-2v-1.1562c0-0.554 0.446-1 1-1h1.1562l2-2h-5.1562z"/>
 <rect id="rect3331-6" style="opacity:.4;stroke:url(#linearGradient2911);stroke-linecap:square;fill:none" rx=".082552" ry=".083472" height="31" width="43" y="11.5" x="2.5"/>
 <path id="path3341-2" style="stroke:url(#linearGradient2903);fill:none" d="m3.2367 13.731 20.763 18.637 21.077-18.763m-26.421 14.263-13.475 13.632 13.475-13.632zm10.719 0.062 13.569 13.319-13.569-13.319z"/>
 <path id="path3341-2-6" style="opacity:.7;stroke:url(#linearGradient2900);fill:none" d="m3.2367 15.031 20.763 18.637 21.077-18.763m-26.421 14.263-13.475 13.632 13.475-13.632zm10.719 0.062 13.569 13.319-13.569-13.319z"/>
 <path id="path3493" style="opacity:.2;stroke:url(#linearGradient2897);fill:none" d="m8.4623 19.818 15.634 14 15.442-14"/>
 <path id="path3926" style="opacity:.7;stroke:url(#linearGradient2894);fill:none" d="m3.2367 12.316 20.763 18.637 21.077-18.762"/>
 <path id="path3333" style="opacity:.2;fill:url(#linearGradient2891);fill-rule:evenodd" d="m2.4744 10c-0.82213 0-1.473 0.76039-1.473 1.5l0.0153 18.5c1.3232-0.02 44.977-7.372 45.982-7.726v-10.774c0-0.56534-0.64296-1.5-1.3548-1.5h-43.17z"/>
</svg>
